public/images/logout.svg

<svg xmlns="http://www.w3.org/2000/svg" viewBox="0 0 512 512"><!--!Font Awesome Free 6.7.2 by @fontawesome - https://fontawesome.com License - https://fontawesome.com/license/free Copyright 2025 Fonticons, Inc.--><path d="M377.9 105.9L500.7 228.7c7.2 7.2 11.3 17.1 11.3 27.3s-4.1 20.1-11.3 27.3L377.9 406.1c-6.4 6.4-15 9.9-24 9.9c-18.7 0-33.9-15.2-33.9-33.9l0-62.1-128 0c-17.7 0-32-14.3-32-32l0-64c0-17.7 14.3-32 32-32l128 0 0-62.1c0-18.7 15.2-33.9 33.9-33.9c9 0 17.6 3.6 24 9.9zM160 96L96 96c-17.7 0-32 14.3-32 32l0 256c0 17.7 14.3 32 32 32l64 0c17.7 0 32 14.3 32 32s-14.3 32-32 32l-64 0c-53 0-96-43-96-96L0 128C0 75 43 32 96 32l64 0c17.7 0 32 14.3 32 32s-14.3 32-32 32z"/></svg>

<svg width="512" height="512" viewBox="0 0 512 512" fill="none" xmlns="http://www.w3.org/2000/svg">
<path d="M377.9 105.9L500.7 228.7C507.9 235.9 512 245.8 512 256C512 266.2 507.9 276.1 500.7 283.3L377.9 406.1C371.5 412.5 362.9 416 353.9 416C335.2 416 320 400.8 320 382.1V320H192C174.3 320 160 305.7 160 288V224C160 206.3 174.3 192 192 192H320V129.9C320 111.2 335.2 96 353.9 96C362.9 96 371.5 99.6 377.9 105.9ZM160 96H96C78.3 96 64 110.3 64 128V384C64 401.7 78.3 416 96 416H160C177.7 416 192 430.3 192 448C192 465.7 177.7 480 160 480H96C43 480 0 437 0 384V128C0 75 43 32 96 32H160C177.7 32 192 46.3 192 64C192 81.7 177.7 96 160 96Z" fill="#2563EB"/>
</svg>
